X: 11405
T: East Clare, The
R: reel
M: 4/4
K: Ddorian
DEFA d2cA|GEED EFGc|Add^c d=cAB|cAGE EDCE|
DEFA d2cA|GEED EFGc|Add^c d=cAB|1 cAGE EDCE:|2 cAGE EDDD||
|:aged cded|c3d e~g3|aged cded|cAGE EDDd|
ed (3e^fg a3e|dcAB cAGE|~F3E FGAB|1 cAGE EDDD:|2 cAGE EDCE||

